X: 31162
T: Paddy Fahey's
R: jig
M: 6/8
K: Dmajor
|:A|DFA d2e|dcA G3|AFD =c2B|edc B/=c/dA|
DFA d2e|d^cA G3|Ad=c AGE|EAD D2:|
|:A|DFA fed|cAG AAB|=c2B edc|B/c/dA G3|
Add fed|^cAG EFG|Ad=c AGE|EAD D2:|

